docs/img/icon1/crm_comma.svg

<svg width="286" height="221" viewBox="0 0 286 221" fill="none" xmlns="http://www.w3.org/2000/svg">
<path d="M209.564 151.563L209.587 151.539L209.609 151.513C212.442 148.15 213.814 143.777 213.814 138.493V129.653V128.653H212.814L20.4189 128.653C13.3848 128.653 8.40126 127.118 5.25927 124.244C2.48352 120.968 1 115.766 1 108.437V21.216C1 13.8388 2.50342 8.85959 5.25802 5.99745C8.39996 2.73286 13.3797 1.00001 20.4189 1.00001L265.563 1C272.615 1 277.366 2.7378 280.118 5.95407L280.156 5.99874L280.199 6.03862C283.301 8.90353 284.983 13.8644 284.983 21.216V132.011C284.983 161.706 277.275 183.796 262.034 198.474C247.133 212.796 227.171 220 202.038 220H20.4189C13.3848 220 8.40128 218.464 5.25929 215.59C2.48354 212.314 1.00003 207.112 1.00003 199.784V176.211C1.00003 168.833 2.50345 163.854 5.25805 160.992C8.39999 157.728 13.3797 155.995 20.4189 155.995H197.5C202.605 155.995 206.679 154.561 209.564 151.563Z" stroke="#F5F6FF" stroke-width="2"/>
</svg>

<svg width="286" height="221" fill="none" xmlns="http://www.w3.org/2000/svg"><path d="M209.564 151.563l.023-.024.022-.026c2.833-3.363 4.205-7.736 4.205-13.02v-9.84H20.419c-7.034 0-12.018-1.535-15.16-4.409C2.484 120.968 1 115.766 1 108.437V21.216C1 13.839 2.503 8.86 5.258 5.997 8.4 2.733 13.38 1 20.418 1h245.145c7.052 0 11.803 1.738 14.555 4.954l.038.045.043.04c3.102 2.865 4.784 7.825 4.784 15.177v110.795c0 29.695-7.708 51.785-22.949 66.463C247.133 212.796 227.171 220 202.038 220H20.418c-7.033 0-12.017-1.536-15.159-4.41C2.484 212.314 1 207.112 1 199.784v-23.573c0-7.378 1.503-12.357 4.258-15.219 3.142-3.264 8.122-4.997 15.16-4.997H197.5c5.105 0 9.179-1.434 12.064-4.432z" stroke="#F5F6FF" stroke-width="2"/></svg>
